X: 1
T: I Believe in Father Christmas
T: Troika interlude
C: Greg Lake & Peter Sinfield
Z: DW
M: 4/4
L: 1/4
K: D
| zB/A/ -A/FD/ | ED/E/ -E<F | zB/A/   -A/FD/ | EDD2 \
| zB/B/  AF/D/ | ED  E/F/-F | z/B/B/B/ AF/D/ | EDD2 ||
  z=c/c/    B/A/G | AA/G/- G/A/-A>D | =c/cB/-B/GG/ | A/AA/-A/D/4D/4 \
| d/d/-d/d/ cA/A/ | B/A/-A/A /A>D | FF/F/E/D/-D/E/ | D3 ||
"^Troika"A \
| d/c/B/c/dB | ABFA | B/A/Gdc/d/ | A3G/F/ | EBA/G/F/G/ | A/G/F/G/Ad/B/ | GF/G/AA | d4 |]


%%text (with chords: Chords NOT completed - check with PDF file to complete 10-6-2021)
